X:1
T:[ID 2v-5a (=2-139a)]
T:[ID 2v-5a (=2-139a)]
T:Bezeichnung standardisiert: Siciliano Siciliano
T:Urheber unbekannt Datum in der hier transkribierten schriftlichen Quelle: 1767
C:Urheber unbekannt
C:Datum in der hier transkribierten schriftlichen Quelle: 1767
L:1/8
M:6/8
K:G
V:1 treble 
V:1
 B | B>AG B>AG | B>cA B2 B | c>dc a2 c | G2 B B2 G | A>BA c2 A | A>BA G>FE | F2 f d2 f | %8
 e2 d ^c>de | d2 f f2 a | g>fe d>^cB | A>B^c c3 | d>^cd d3 | ^c>de e2 f | A>GF G>FD | F>GF F3 | %16
 F>GA G3 | e>d^c d>fe | d>AF G>FE | F2 f d2 f | e2 d e2 ^c | d2 d d2 :: f | f>ed f>ed | f>ge f2 f | %25
 f>e^d a>gf | e2 f g2 e | A>cB A>GF | G3 z z e | e>dc g>fe | d2 e f2 F | G>BA G>FE | F2 d f2 a | %33
 g3 e3 | d>ef f3 | g>fg g3 | f>ga a2 b/a/ | g>dB c>BA | d>ed =f3 | B>cd c3 | f2 f f2 a | %41
 g2 B c>BA | B2 B G2 b | a2 g a2 f | g>bg g3 | d>gd B3 | f2 f d2 c | BBB B3 :| %48

